X:2
T:Hymn for America
C:Mark Johnson
S:Mark Johnson <osteon@EARTHLINK.NET> irtrad-l 2001-9-19
M:3/4
L:1/8
Q:90
K:C
Gc|:e2 e2 g2|e2 e2 Gc|e2 e2 d2|c4 Gc|e2 e2 g2|e2 e2 g2|a2 a2 ag|
d4 ce|g2 g2 c'a|g2 g2 ce|g2 g>a g>e|d4 ce|g2 g2 c'a|g2 g2 cd|
e2 e2 d2|1 c4 Gc:|2 c6|]
